assets/images/logo1.svg

<svg fill="none" height="73" viewBox="0 0 116 73" width="116" xmlns="http://www.w3.org/2000/svg"><path d="m.392809.926395c-.3666219.555835-.4766081 1.185785-.3299596 1.741625.3666216 1.18577 19.1742506 56.02858 21.2273506 61.92048 2.0897 5.966 2.603 6.8553 4.2528 7.337.7699.2224 4.8027.3335 10.3754.2594l9.1287-.1112.8066-1.0375c.4399-.5559 3.2629-7.93 6.2692-16.3787s5.5726-15.3782 5.6826-15.3782 2.6763 6.9665 5.6826 15.4523c3.043 8.5228 5.866 15.897 6.3059 16.4157l.7699.9264 9.5688.1112c11.6219.1482 11.2186.2594 12.7951-3.8909.8432-2.2604 16.8282-48.395 21.9602-63.36559.954-2.85328.954-3.00151.367-3.964959l-.623-.963451h-10.376c-11.3282 0-11.4015-.00000018-12.538 2.22335-.44.88934-6.0126 19.34315-10.4487 34.75835-.66 2.2606-1.2832 4.1134-1.3565 4.0392-.0367-.0741-3.0063-8.5229-6.5259-18.7504-3.5562-10.2644-6.7825-19.30603-7.1491-20.08421-.4033-.77817-1.0632-1.593398-1.4298-1.815732-.9532-.481726-13.0517-.481726-14.005 0-1.2465.704062-1.2831.778172-9.8621 25.753842-2.603 7.5223-4.8392 14.0072-4.9859 14.3778-.1466.4817-2.1264-5.6327-5.8659-18.1946-3.0796-10.4127-5.8659-19.41725-6.1592-20.04719-1.1732-2.26041018-1.2099-2.26041-12.5751-2.26041h-10.375398z" fill="#fff"/></svg>

<svg width="116" height="73" viewBox="0 0 116 73" fill="none" xmlns="http://www.w3.org/2000/svg">
<path d="M0.392809 0.926395C0.0261871 1.48223 -0.0837991 2.11218 0.0628494 2.66802C0.429471 3.85379 19.2371 58.6966 21.2902 64.5885C23.3799 70.5545 23.8932 71.4438 25.543 71.9255C26.3129 72.1479 30.3457 72.259 35.9184 72.1849L45.0471 72.0737L45.8537 71.0362C46.2936 70.4803 49.1166 63.1062 52.1229 54.6575C55.1292 46.2088 57.6955 39.2793 57.8055 39.2793C57.9155 39.2793 60.4818 46.2458 63.4881 54.7316C66.5311 63.2544 69.3541 70.6286 69.794 71.1473L70.5639 72.0737L80.1327 72.1849C91.7546 72.3331 91.3513 72.4443 92.9278 68.294C93.771 66.0336 109.756 19.899 114.888 4.92841C115.842 2.07513 115.842 1.9269 115.255 0.963451L114.632 0H104.256C92.9278 0 92.8545 -1.76696e-07 91.718 2.22335C91.278 3.11269 85.7054 21.5665 81.2693 36.9817C80.6093 39.2423 79.9861 41.0951 79.9128 41.0209C79.8761 40.9468 76.9065 32.498 73.3869 22.2705C69.8307 12.0061 66.6044 2.96447 66.2378 2.18629C65.8345 1.40812 65.1746 0.592892 64.808 0.370558C63.8548 -0.111168 51.7563 -0.111168 50.803 0.370558C49.5565 1.07462 49.5199 1.14873 40.9409 26.1244C38.3379 33.6467 36.1017 40.1316 35.955 40.5022C35.8084 40.9839 33.8286 34.8695 30.0891 22.3076C27.0095 11.8949 24.2232 2.89035 23.9299 2.26041C22.7567 -1.76696e-07 22.72 0 11.3548 0H0.979402L0.392809 0.926395Z" fill="white"/>
</svg>
